svgs/light/message-medical.svg

<svg xmlns="http://www.w3.org/2000/svg" viewBox="0 0 512 512"><!-- Font Awesome Pro 6.0.0-alpha2 by @fontawesome - https://fontawesome.com License - https://fontawesome.com/license (Commercial License) --><path d="M448 0H64C28.75 0 0 28.75 0 64V352.002C0 387.252 28.75 416.002 64 416.002H160V500.002C160 509.84 171.025 515.479 179.125 509.627L304 416.002H448C483.25 416.002 512 387.252 512 352.002V64C512 28.75 483.25 0 448 0ZM480 352.002C480 369.602 465.6 384.002 448 384.002H303.924C296.996 384.002 290.254 386.25 284.713 390.408L192 460.002V400.002C192 391.164 184.836 384.002 176 384.002H64C46.4 384.002 32 369.602 32 352.002V64C32 46.4 46.4 32 64 32H448C465.6 32 480 46.4 480 64V352.002ZM336 176H288V128C288 119.162 280.836 112 272 112H240C231.164 112 224 119.162 224 128V176H176C167.164 176 160 183.162 160 192V224C160 232.836 167.164 240 176 240H224V288C224 296.836 231.164 304 240 304H272C280.836 304 288 296.836 288 288V240H336C344.836 240 352 232.836 352 224V192C352 183.162 344.836 176 336 176Z"/></svg>

<svg xmlns="http://www.w3.org/2000/svg" viewBox="0 0 512 512"><!--! Font Awesome Pro 6.3.0 by @fontawesome - https://fontawesome.com License - https://fontawesome.com/license (Commercial License) Copyright 2023 Fonticons, Inc. --><path d="M447.1 0h-384c-35.25 0-64 28.75-64 63.1v287.1c0 35.25 28.75 63.1 64 63.1h96v83.1c0 9.838 11.03 15.5 19.12 9.65l124.9-93.65h144c35.25 0 64-28.75 64-63.1V63.1C511.1 28.75 483.2 0 447.1 0zM480 352c0 17.6-14.4 32-32 32h-144.1c-6.928 0-13.67 2.248-19.21 6.406L192 460v-60c0-8.838-7.164-16-16-16H64c-17.6 0-32-14.4-32-32V64c0-17.6 14.4-32 32-32h384c17.6 0 32 14.4 32 32V352zM336 176H288V128c0-8.838-7.164-16-16-16h-32C231.2 112 224 119.2 224 128v48H176C167.2 176 160 183.2 160 191.1V224c0 8.836 7.164 15.1 16 15.1H224v48C224 296.8 231.2 304 240 304h32c8.836 0 16-7.166 16-16v-48h48C344.8 239.1 352 232.8 352 224V191.1C352 183.2 344.8 176 336 176z"/></svg>
